X:1
T:Title
%%score { ( 1 3 ) | 2 }
L:1/8
M:6/8
K:Ab
V:1 treble nm="Grand Piano"
V:3 treble 
V:2 bass 
V:1
 z3 z2[Q:1/4=87] [CE] | [CE][_C=D][=CE] [Ec][_DB][CA] | [FA][EG][DF] [CE]2 [CE] | z3 .c3 | %4
 c B2- B2 E | [CE][_C=D][=CE] [Ec][_DB][CA] |[M:7/8] [CA][DB][Ec] [Fd]3 F | EAB c3 B | %8
[M:3/4] [DB][CA]- [CA]3 z | c2 z .c3 | cd e .[FB]3 | B3 B2 B | Bc d .c3 | e3 c3 | [FA]3 F2 F | %15
 E2 Ac/c/- cB | [CA]6 | [DF]3 [CE]3 | [DF]3 [CE]2 [CE] | G2 GG AB |[M:5/8] [CA]-[CA]- [CA]3 |] %21
V:2
 z3 z2 [A,,A,] | [A,,A,][A,,A,][A,,A,] [A,,A,][A,,A,][A,,A,] | [D,A,]2 [D,A,] [A,,A,]2 [A,,A,] | %3
 [C,A,][B,,E,][A,,E,] [A,,A,][B,,G,][C,A,] | [E,A,E] [E,G,E]2- [E,G,E]2 [E,G,] | %5
 [A,,A,][A,,A,][A,,A,] [A,,A,][A,,A,][A,,A,] |[M:7/8] [A,,A,][A,,A,][A,,A,] [D,A,]3 [D,A,D] | %7
 [E,A,C][E,A,C][E,G,D] [E,G,E]3 [E,G,D] |[M:3/4] [A,,A,][A,,A,]- [A,,A,]3 z | [A,E]2 z .[A,E]3 | %10
 [A,E][A,B,E] [A,CE] .[D,D]3 | [E,G,E]3 [E,G,E]2 [E,G,E] | %12
 [E,G,E][E,A,E] [E,B,E][K:treble] .[A,E]3 | [A,CA]3 [A,EA]3 | [D,D]3 [D,A,D]2 [D,A,D] | %15
 [E,A,C]2 [E,A,C][E,A,E]/[E,A,E]/- [E,A,E][E,G,D] | [A,,A,]6 | [D,A,]3 [A,,A,]3 | %18
 [D,A,]3 [A,,A,]2 [A,,A,] | [E,B,E]2 [E,B,E][E,B,E] [E,A,C][E,G,D] | %20
[M:5/8] [A,,A,]-[A,,A,]- [A,,A,]3 |] %21
V:3
 x6 | x6 | x6 | [EA][DG][CA] E-[EB][EA] | x6 | x6 |[M:7/8] x7 | x7 |[M:3/4] x6 | x6 | x6 | x6 | %12
 x6 | x6 | x6 | x6 | x6 | x6 | x6 | x6 |[M:5/8] x5 |] %21

